X:1
T:Haydn - Sonata in G Major, Hob.XVI:27. {Professional production score.}
T:Sonata 1 6 Sonate 1776
%%score { 1 | 2 }
L:1/8
Q:1/4=110
M:2/4
K:G
V:1 treble nm="Piano" snm="Pno."
V:2 bass 
V:1
!f!"^I - Allegro con brio" D | !turn!G>A !turn!B>c | d!mp!d dd | d!f!(e/f/ a/g/f/e/ | d)!mp!d dd | %5
!<(! d(e/f/ a/"^Franz Joseph Haydn (1732-1809)"g/f/e/ | d)(g/b/"^Hob. XVI:27" a/g/f/e/!<)! | %7
!f! d2) Tc2 | d2 z G | PFE PDC | B,2 z (3E/F/E/ | D(3C/D/C/ B,(3A,/B,/A,/ | G,2 z D | %13
 (G/F/)(A/G/) (B/A/)(c/B/) | d!mp!d dd | d!f!(e/f/ a/g/f/e/ | d)!mp!d dd | d(g =fd) | (^d2 e2-) | %19
 e(g ec) | (^c2 d2-) | d!f!b (a/<g/)(f/<e/) | d2 (PcB) | (B/c/^d/!>(!e/ =d/c/B/A/)!>)! | %24
!mp! (G2 F)!f!A | d2 (g/f/e/d/) | (d^c) z A | z4 | z4 | z4 | z4 | z4 | z4 | z4 | z4 | z4 | z4 | %37
 z4 | z4 | z4 | z4 | z4 | z4 | z4 | z4 | z4 | z4 | z4 | z4 | z4 | z4 | z4 :| !wedge!D | z4 | z4 | %55
 z4 | z4 | z4 | z4 | z4 | z4 | z4 | z4 | z4 |] %64
V:2
 z | [G,B,]2 z2 |[K:treble] z [GB] [FA][Ac] | [GB]2 z2 | z [GB] [FA][Ac] | [GB]2 z [Gc] | %6
 [GB]2 z2 | z B AD | GD G,[K:bass] [G,,G,] | [F,,F,][E,,E,] [D,,D,][C,,C,] | %10
 [B,,,B,,]2 z (3E,/F,/E,/ | D,(3C,/D,/C,/ B,,(3A,,/B,,/A,,/ | G,,2 z2 | [G,B,]2 z2 | %14
[K:treble] z [GB] [FA][Ac] | [GB]2 z2 | z [GB] [FA][Ac] | [GB]4- | [GB][Gc] [Gc][Gc] | [Gc]2 z2 | %20
 z [GB] [GB][GB] | [GB]2 z2 | z (A FG) |[K:bass] C3 ^C | DA, D, z | D,/A,/F,/A,/ D,/A,/F,/A,/ | %26
 E,/A,/G,/A,/ E,/A,/G,/A,/ | z4 | z4 | z4 | z4 | z4 | z4 | z4 | z4 | z4 | z4 | z4 | z4 | z4 | z4 | %41
 z4 | z4 | z4 | z4 | z4 | z4 | z4 | z4 | z4 | z4 | z4 :| z | z4 | z4 | z4 | z4 | z4 | z4 | z4 | %60
 z4 | z4 | z4 | z4 |] %64

